X:7507
T:There's nae luck about the House. CJF.102
T:Nae Guid Luck,with var.,aka. CJF.102
O:england
M:2/4
L:1/8
Q:1/8=200
S: C.J.Fox MS, 1829/33, Beverley,E.Yorks.
R:Schottische
A:East Yorkshire
B:Kidson Coll.Mitchell Lib.M1805
K:A
g|a>f ec|.d.d dg|a>f ec|"~"B3g|a>f ec|\
d>e fa|.e.d.c.B|A3h||B|.c.c (cA)|.d.d (dB)|
.c.c (cA)|B3A/B/|.c.c (cA)|d>e fa|.e.d (cB)|A3A/B/|
L:1/16
Q:1/8=200
(cBcB c).ABc|(dcdc d).B.c.d|(ceag f).e.d.c|(c2B2).B2 AB|\
(cBcB c).A.B.c|d>cd>e f>ga>f|(e>fd>e c>d" D Capo"B>c)|A6|
L:1/8
Q:1/8=200


